!!!!SEGMENT: pl-wumfc--n8919--001-002_szymanowski-karol--dwanascie-piesni-op-17-x-dusza-pogasil-zmrok-juz-dnia-promienie.krn
!!!cenid: 19xx:82
!!!COM: Szymanowski, Karol
!!!COM-rismID: pe30106403
!!!CDT: 1882-1937
!!!CNT: Polish
!!!GTL: Dwanaście pieśni Op. 17
!!!OTL: X. Dusza/Pogasił zmrok już dnia promienie
!!!OMV: 002
!!!PDT:
!!!AGN: Secular; Song
!!!YEC: Copyright 2022 Narodowy Instytut Fryderyka Chopina (https://polishscores.org)
!!!YEM: License CC-BY-4.0 (https://creativecommons.org/licenses/by/4.0)
!!!SMS-siglum: PL-Wumfc
!!!SMS-shelfmark: N8919
!!!SMS-variant:
!!!SMS-altvar:
!!!SMS-shelfwork: 001-002 G
!!!NIFC-rismSourceID: 1001170655
!!!NIFC-rismChildID: 1001170778
!!!NIFC-islandoraID: pl-wumfc:7736
!!!URL-pdf-islandora: https://repozytorium.nifc.pl/islandora/object/pl-wumfc%3A7736/datastream/PDF/view
!!!URL-scan: https://polish.musicsources.pl/pl/lokalizacje/galeria/druki-muzyczne/12686/5 @EN{Scan on Polish Music Sources Website} @PL{Skany w portalu Dziedzictwo Muzyki Polskiej w otwartym dostępie}
!!!IIIF:
!!!ONB-nifc: UWAGA: str. 5.
!!!AIN: 1 piano 1 vox
!!!key:
**kern	**fing	**kern	**fing	**dynam	**kern	**text	**text	**dynam
*part2	*part2	*part2	*part2	*part2	*part1	*part1	*part1	*part1
*staff3	*	*staff2	*	*	*staff1	*staff1	*staff1	*
*I"fortepian	*	*I"fortepian	*	*	*I"spiew	*	*	*
*I'[pf]	*	*I'[pf]	*	*	*I'[V]	*	*	*
*ICklav	*	*ICklav	*	*	*ICvox	*	*	*
*Ipiano	*	*Ipiano	*	*	*Ivox	*	*	*
*clefF4	*	*clefG2	*	*	*clefG2	*	*	*
*k[f#c#g#d#a#e#]	*	*k[f#c#g#d#a#e#]	*	*	*k[f#c#g#d#a#e#]	*	*	*
*f#:	*	*f#:	*	*	*f#:	*	*	*
*M3/4	*	*M3/4	*	*	*M3/4	*	*	*
=1	=1	=1	=1	=1	=1	=1	=1	=1
*	*	*	*	*	*^	*	*	*
!!LO:TX:t=P:problem: aplikatura i niektóre akcydencje dopisane ołówkiem	!	!	!	!	!	!	!	!	!
!	!	!LO:TX:b:i:t=legatissimo	!	!	!LO:TX:a:B:t=Andantino dolce.	!	!	!LO:HP:a	!LO:DY:a
8FFF#/ 8FF#	.	4r	.	p <	4.an/	4r	Däm-	.	p <
(8f#\L	.	.	.	.	.	.	.	.	.
!	!	!LO:TX:t=P:problem: dopisany # oraz 4an\ zakreślona ołówkiem	!	!	!	!	!	!	!
8B#X\	.	(4an\ 4ff# 4aan	.	.	.	8r	.	.	.
8c#\	.	.	.	.	8a/	8a\	-me-	Po-	.
8f##X\	.	4a#X\ 4ee# 4aa#X	.	.	4a#X/	8a#\	-rung	-ga-	.
8g#\J)	.	.	.	.	.	8a#\	.	-sił	[
*	*	*	*	*	*v	*v	*	*	*
=2	=2	=2	=2	=2	=2	=2	=2	=2
*	*	*^	*	*	*	*	*	*
!	!	!	!	!	!	!	!	!	!LO:HP:a
N(<8an>\L	.	2cc#/ 2een 2ccc#	4an\	.	[ >	2cc#\	löscht	zmrok	>
(8BBB/	.	.	.	.	.	.	.	.	.
8BB/	.	.	4a#X\	.	.	.	.	.	.
8F##X/	.	.	.	.	.	.	.	.	.
8G#/	.	4dd#/) 4bb	4b\N)	.	.	4b\	die	już	]
8d#/J)	.	.	.	.	]]	.	.	.	.
*	*	*v	*v	*	*	*	*	*	*
=3	=3	=3	=3	=3	=3	=3	=3	=3
*^	*	*	*	*	*	*	*	*
!	!	!	!	!	!	!	!	!	!LO:HP:a
(4.dnX/	8dnX/L	.	(4b\ 4ff#	.	.	4.ddn\	letz-	dnia	<
.	(8AAA#/	.	.	.	.	.	.	.	.
.	8AA#\J)	.	4a#\ 4ggn	.	.	.	.	.	.
8c#/L	8ryy	.	.	.	.	4.dd\	-ten	pro-	.
8cn/	4ryy	.	4an\) 4gg#X	.	.	.	.	.	.
!LO:N:n=1:acc=n# 	!	!	!	!	!	!	!	!	!
8F#X/J)	.	.	.	.	.	.	.	.	.
=4	=4	=4	=4	=4	=4	=4	=4	=4	=4
!	!	!	!LO:TX:t=P:problem:mixed beam	!	!	!	!	!	!
(4.B/	8B/L	.	(4g#\ 4dd#	.	.	2dd#X\	Lich-	-mie-	.
.	(8GGG#/	.	.	.	.	.	.	.	.
!	!	!	!LO:TX:b:i:t=rit.	!	!	!	!	!	!
.	8GG#\J)	.	4gn\ 4een	.	.	.	.	.	.
8A#/L	8ryy	.	.	.	.	.	.	.	.
!	!	!	!	!	!	!	!	!	!LO:HP:a
8An/	4A\	.	4f#\ [4ee#X	.	.	4b#X\	-ter,	-nie,	[ > ]]
*	*	*color:grey	*	*	*	*	*	*	*
*	*	*below	*	*	*	*	*	*	*
8D#/J	.	4	.	.	.	.	.	.	.
*v	*v	*	*	*	*	*	*	*	*
=5	=5	=5	=5	=5	=5	=5	=5	=5
!	!	!LO:ACC:color=grey	!	!	!	!	!	!
!	!	!LO:TX:t=P:problem: # dopisany ołówkiem	!	!	!	!	!	!
8C#/L) 8A#X	.	8e#X/) 8ee#]	.	.	4r	.	.	.
!	!	!LO:ACC:color=grey	!	!	!	!	!	!
!	!	!LO:TX:t=P:problem: # dopisany ołówkiem	!	!	!	!	!	!
(8AAA#/	.	(4cc#\ 4ee#X	.	<	.	.	.	.
!	!	!	!	!	!	!	!	!LO:DY:a
!	!	!	!	!	!	!	!	!LO:HP:a
8AA#/J)	.	.	.	.	4cc#\	noch	pełz-	p <
*	*	*	*color:grey	*	*	*	*	*
(8g#\L	.	4ddn\ 4ff#	3	.	.	.	.	.
8dn\	.	.	.	.	4ddn\	ein	-nie	.
8en\J	.	8b#X\ [8gg#	4	.	.	.	.	.
!!LO:LB:g=original	!	!	!	!	!	!	!	!
=6	=6	=6	=6	=6	=6	=6	=6	=6
8G#/L)	1	8b\ 8gg#]	.	.	2een\	ir-	nik-	.
(8FFF#/	.	4een\ 4gg#	.	.	.	.	.	.
8FF#/J)	.	.	.	.	.	.	.	.
!LO:ACC:color=grey	!	!LO:TX:t=P:problem: # dopisany ołówkiem	!	!	!	!	!	!
!LO:TX:t=P:problem: # dopisany ołówkiem	!	!LO:ACC:n=2:color=grey	!	!	!	!	!	!
(8e#X\L 8a#	.	4ddn\ 4aa#X	.	.	.	.	.	.
8B#X\	.	.	.	.	4a#/	-rer	-ły	[
8c#\J	.	8cc#\) [8bb	.	[	.	.	.	.
=7	=7	=7	=7	=7	=7	=7	=7	=7
*	*	*	*	*	*	*	*	*^
!	!	!	!	!	!	!	!	!LO:HP:a	!
8F#/L)	.	(8een\L 8bb]	1	.	(4b^^\	Schall	swia-	>	.
(8AAAn/	.	8aan\	3	.	.	.	.	.	.
8AAn/J)	.	8dd#X\ 8ddd#X	.	.	[4an/)	.	.	.	.
(8gn\L	.	8ee#X\	2	.	.	.	.	.	.
!	!	!	!	!LO:HP:t=dim.	!	!	!	!	!LO:HP:t=dim.
8c#\	.	8cc#\ 8ccc#	.	>	8a/]	.	.	.	>
!LO:SIC:o=8d#X\J:t=# w nawiasie	!	!	!	!	!	!	!	!	!
8d#X\J	.	8ff#\J	3	.	8g#/	und	-tła	.	.
*	*	*	*	*	*	*	*	*v	*v
=8	=8	=8	=8	=8	=8	=8	=8	=8
*	*	*^	*	*	*	*	*	*
!LO:TX:t=P:problem:mixed beam	!	!LO:TX:b:i:t=riten.	!	!	!	!	!	!	!
8an\L)	.	8dd#\L 8ff##X	2ryy	.	.	[2f##X/	Schein,	ślad,	.
(8DD#/	.	8g#\ 8gg#	.	.	.	.	.	.	.
8D#/J)	.	8cc#\ 8dd#	.	.	.	.	.	.	.
(8f##X\L	.	8en\ 8een	.	.	.	.	.	.	.
8c#\	3	8b\	[4b/	2	.	8f##/]	.	.	]
8dn\J	2	[<8e#X\J) [8ee#X	.	.	.	8r	.	.	.
*	*	*v	*v	*	*	*	*	*	*
=9	=9	=9	=9	=9	=9	=9	=9	=9
*^	*	*	*	*	*	*	*	*
*	*	*	*	*	*	*	*	*	*^
!LO:TX:t=P:problem: g dopisane ołówkiem	!	!	!	!	!	!	!	!	!	!
!LO:TX:b:t=g:color=grey	!	!	!	!	!	!	!	!	!LO:HP:a	!
8F##X/L)	4ryy	.	8e#/_ 8b] 8ee#]	.	.	8ddn\	und	W co-	<	.
(8GGG#/	.	.	(4e#/] 4b#X 4dd#X	.	.	8dd#X\	die	-raz	.	.
!	!	!	!	!	!	!LO:SIC:o=[2ff#X\:t=# w nawiasie	!	!	!	!
8GG#/J)	8ryy	.	.	.	.	2ff#X\	Nacht	gęst-	.	<
!	!	!	! 	!	!	!	!	!	!	!
!LO:N:n=1:acc=n#	!LO:N:n=1:acc=n#	!	!LO:TX:b:t=cre_scen_do:dur=3e2q:ext=ud:problem:text with extention lines	!	!LO:HP:t=cre_scen_do	!	!	!	!	!
(8f#X/L	[4.F#X\	.	4bn\ 4een	.	<	.	.	.	.	.
8cn/	.	.	.	.	.	.	.	.	.	.
!LO:TX:t=P:problem: voice leading line	!	!	!LO:SIC:o=8a#X\ [8ff#:t=# w nawiasie	!	!	!	!	!	!	!
8dn/J	.	.	8a#X\	.	.	.	.	.	.	.
*	*	*	*	*	*	*	*	*	*v	*v
*v	*v	*	*	*	*	*	*	*	*
=10	=10	=10	=10	=10	=10	=10	=10	=10
8F#/L])	.	8an\ 8ff#]	.	.	4ff#\]	.	.	.
(8EEEn/	.	4ddn\ 4ff#	.	.	.	.	.	.
8EEn/J)	.	.	.	.	(4.ee#\	hüllt	-sze	.
(8dn\L 8g#	.	4ccn\ 4gg#	.	.	.	.	.	.
8A#X\	.	.	.	.	.	.	.	.
!	!	!	!	!	!	!	!	!LO:DY:a
8Bn\J	.	8b\) [8aan	.	.	8een\)	.	.	[ f
!!LO:LB:g=original	!	!	!	!	!	!	!	!
=11	=11	=11	=11	=11	=11	=11	=11	=11
*	*	*	*	*	*	*	*	*^
!LO:ACC:color=grey	!	!	!	!	!	!	!	!LO:HP:a	!LO:HP:t=dimin.
8E#X/L)	.	8ddn\L 8aanX]	1	.	[2b\	dicht	gęst-	>	>
!	!	!	!	!LO:HP:t=dimin. e rall.	!	!	!	!	!
(8GGGn/	.	(8ggn\	3	>	.	.	.	.	.
8GGn/J)	.	8cc#X\ 8ccc#X	.	.	.	.	.	.	.
!LO:SIC:o=(8e#X\L:t=# w nawiasie	!	!	!	!	!	!	!	!	!
8e#X\L	.	8dd#X\	.	.	.	.	.	.	.
8B\	.	8b\ 8bb	.	.	8b\]	.	.	.	.
8c#\J	.	8een\J	.	.	8ddn\	und	-sze	.	.
*	*	*	*	*	*	*	*	*v	*v
=12	=12	=12	=12	=12	=12	=12	=12	=12
*	*	*^	*	*	*	*	*	*
!LO:TX:t=P:problem:mixed beam	!	!	!	!	!	!	!	!	!
8gn\L)	.	8cc#\L 8ee#X	2ryy	4	.	2cc#\	dich-	cie-	.
(8CC#/	.	8f#\ 8ff#	.	.	.	.	.	.	.
8C#/J)	.	8b\ 8cc#	.	.	.	.	.	.	.
(8e#X\L	.	8dn\ 8ddn	.	.	.	.	.	.	.
8B\	.	8an\	(<4a/	.	.	4e#/	-ter	-nie	]
8B#X\J)	.	8d#X\J) [8dd#X	.	.	.	.	.	.	.
=13	=13	=13	=13	=13	=13	=13	=13	=13	=13
!	!	!LO:TX:t=P:problem: (4c#/ 4dd#] zakreślone ołówkiem	!	!	!	!LO:TX:a:B:t=Tempo I.	!	!	!
(8CCC#/L 8CC#	.	(4c#/ (4dd#]	8a#X\L)	.	<	4r	.	.	.
!	!	!	!LO:TX:t=P:problem: 8a\J zakreślone ołówkiem	!	!	!	!	!	!
8F#/J	5	.	[>8a\J	1	.	.	.	.	.
!	!	!	!	!	!	!	!	!	!LO:HP:a
8B#X\L	3	4any/ 4aan	8any\L]	.	.	4an/	al-	noc	<
8c#\J	2	.	8ff#\J	.	.	.	.	.	.
!	!	!	!LO:ACC:color=grey	!	!	!	!	!	!
8f##X\L	.	4a#X/ 4aa#X	8ee#X\L	.	.	4a#X/	-les	u-	.
!LO:TX:t=P:problem: voice leading line	!	!	!	!	!	!	!	!	!
8g#\J)	.	.	8een\J	.	[[	.	.	.	.
=14	=14	=14	=14	=14	=14	=14	=14	=14	=14
N(<8an>\L	.	2cc#/ 2een 2ccc#	(>4an\	.	>	2cc#\	Le-	-tu-	.
(8BBB/	.	.	.	.	.	.	.	.	.
8BB/	.	.	4a#X\	.	.	.	.	.	.
8F##X/	.	.	.	.	.	.	.	.	.
!	!	!	!	!	!	!	!	!	!LO:HP:a
8G#/	.	4dd#/N) 4bb)	4b\	.	.	4b\	-ben	-la	[ >
8d#/J)	.	.	.	.	]]	.	.	.	.
*	*	*v	*v	*	*	*	*	*	*
=15	=15	=15	=15	=15	=15	=15	=15	=15
*^	*	*	*	*	*	*	*	*
*	*	*	*	*	*^	*	*	*	*
!	!	!	!	!	!LO:HP:a	!LO:HP:t=dim. e rall.	!	!	!	!
(4.dn/	8d/L	.	(4b\ 4ff#	.	<	>	4.ddn\	ein:	swiat:	.
.	(8AAA#/	.	.	.	.	.	.	.	.	.
.	8AA#/J)	.	4a#\ 4ggn	.	.	.	.	.	.	.
8c#/L	8ryy	.	.	.	.	.	4r	.	.	]
8cn/	4ryy	.	4an\) 4gg#X	.	.	.	.	.	.	.
8F#/J)	.	.	.	.	[[	.	8r	.	.	.
*	*	*	*	*	*v	*v	*	*	*	*
!!LO:PB:g=original	!	!	!	!	!	!	!	!	!
=16	=16	=16	=16	=16	=16	=16	=16	=16	=16
!	!	!	!	!	!LO:HP:a	!	!	!	!
(4.B/	8B/L	.	(4g#\ 4dd#	.	>	2.r	.	.	.
.	(8GGG#/	.	.	.	.	.	.	.	.
.	8GG#/J)	.	4gn\ 4een	.	.	.	.	.	.
!LO:ACC:color=grey	!	!	!	!	!	!	!	!	!
8A#X/L	8ryy	2	.	.	.	.	.	.	.
8An/	4ryy	1	4f#\ 4ee#X	.	.	.	.	.	.
8BB#X/J	.	.	.	.	]]	.	.	.	.
=17	=17	=17	=17	=17	=17	=17	=17	=17	=17
*	*	*	*^	*	*	*	*	*	*
!	!	!	!LO:ACC:n=1:color=grey	!	!	!	!LO:TX:a:i:t=(ancora più tranquillo)	!	!	!
8C#/ 8G#)	8ryy	.	8e#X/) 8g#	4ryy	.	ppp	4r	.	.	.
!	!	!	!	!	!	!LO:DY:b=2	!	!	!	!
4GG#/	[4GGG#\	.	8r	.	.	ppp	.	.	.	.
!	!	!	!	!	!	!	!	!	!	!LO:HP:a
!	!	!	!LO:ACC:n=2:color=grey	!	!	!	!	!	!	!LO:DY:a
.	.	.	(4An/ 4e#X	2c#\	.	<	4e#/	Und	Zie-	ppp <
4GG#/	4.GGG#\]	.	.	.	.	.	.	.	.	.
.	.	.	4G#/ 4f#	.	.	.	4f#/	die	-mia	.
[<8GG#/	.	.	.	.	.	.	.	.	.	.
=18	=18	=18	=18	=18	=18	=18	=18	=18	=18	=18
2.F#/	8GG#\]	.	2an/	2.B#X\ 2.d#	.	.	(4an/	Er-	w mro-	.
.	4GG#\	.	.	.	.	.	.	.	.	.
.	.	.	.	.	.	.	4dd#\)	.	.	.
.	4GG#\	.	.	.	.	.	.	.	.	.
!	!	!	!	!	!	!	!	!	!	!LO:HP:a
.	.	.	4a#X/)	.	.	[ >	(8cc#\L	-de	-ku	[ >
.	[8GG#\	.	.	.	.	]]	8b#X\J)	.	.	]]
*	*	*	*v	*v	*	*	*	*	*	*
=19	=19	=19	=19	=19	=19	=19	=19	=19	=19
*	*^	*	*	*	*	*	*	*	*
!	!	!	!	!	!	!	!	!	!	!LO:HP:a
(4G#/	8GG#\]	2.E#\	.	(>2c#/ 2g# 2cc#	.	<	2cc#\	will	śpi	<
.	4GG#\	.	.	.	.	.	.	.	.	.
4An/	.	.	.	.	.	.	.	.	.	.
.	4GG#\	.	.	.	.	.	.	.	.	.
!LO:TX:t=P:problem: voice leading line	!	!	!	!	!	!	!	!	!	!
4A#X/)	.	.	.	4cn/ [4en 4ccn	.	[	4ccn\	nun	ot-	[[
.	[8GG#\	.	.	.	.	.	.	.	.	.
*v	*v	*v	*	*	*	*	*	*	*	*
=20	=20	=20	=20	=20	=20	=20	=20	=20
*	*	*	*	*	*	*	*	*^
!	!	!	!	!	!	!	!	!LO:HP:a	!LO:HP:a:t=dim.
8GG#/]	.	4Bn/ 4e] 4bn	.	ppp >	4.bn\	schla-	-chła-	>	>
(4GGG#/ 4GG#	.	.	.	.	.	.	.	.	.
!	!	!LO:TX:b:i:t=rall.	!	!	!	!	!	!	!
!	!	!LO:ACC:n=2:color=grey	!	!	!	!	!	!	!
.	.	4cn/ 4d#X 4f#	.	.	.	.	.	.	.
!	!	!	!	!	!LO:TX:t=P:problem: wydrapana główka nuty	!	!	!LO:DY:a	!
4AAAn/ 4AAn	.	.	.	.	4.b\	-fen;	-ni;	] ppp	.
.	.	4B/) [4dn 4g#	.	.	.	.	.	.	.
!LO:SIC:o=[8EEE#X/) [8EE#X:t=# w nawiasie	!	!	!	!	!	!	!	!	!
[8EEE#X/) [8EE#X	.	.	.	]]	.	.	.	.	.
*	*	*	*	*	*	*	*	*v	*v
!!LO:LB:g=original	!	!	!	!	!	!	!	!
=21	=21	=21	=21	=21	=21	=21	=21	=21
*^	*	*^	*	*	*	*	*	*
8EEE#/L] 8EE#]	4ryy	.	(>4An/ 4d] 4an	4ryy	.	<	4r	.	.	.
8FFF#/J [<8FF#	.	.	.	.	.	.	.	.	.	.
!	!	!	!	!	!	!	!	!	!	!LO:HP:a
!LO:ACC:n=1:color=grey	!	!	!	!	!	!	!LO:TX:a:i:t=poco avviv..	!	!	!LO:DY:a
(4F#X/ 4An	8FF#\]	.	4a/	[2dn\	.	.	4an/	a-	tyl-	p <
.	4FF#\	.	.	.	.	.	.	.	.	.
!LO:SIC:o=4E#X/) 4G#X:t=# w nawiasie	!	!	!	!	!	!	!	!	!	!
4E#X/) 4G#X	.	.	4a#X/	.	.	.	4a#X/	-ber	-ko	.
.	8FF#\	.	.	.	.	[[	.	.	.	.
=22	=22	=22	=22	=22	=22	=22	=22	=22	=22	=22
*	*^	*	*	*	*	*	*	*	*	*
*	*	*	*	*	*	*	*	*	*	*	*^
!	!	!	!	!	!LO:TX:b:t=cre_scen_do:dur=2h2q:ext=ud:problem:text with extention lines	!	!LO:HP:t=cre_scen_do	!LO:TX:b:t=cre_scen_do:dur=5q2eh:ext=ud:problem:text with extention lines	!	!	!	!LO:HP:t=cre_scen_do
2.En/ 2.Gn	8r	8ryy	.	2b/	4d\]	.	<	(4b\	ru-	w to-	.	<
.	[4FFF#\	4FF#/	0	.	.	.	.	.	.	.	.	.
.	.	.	.	.	2c#\	.	.	4een\)	.	.	.	.
.	4.FFF#\]	4FF#/	.	.	.	.	.	.	.	.	.	.
!	!	!	!	!	!	!	!	!	!	!	!LO:HP:a	!
.	.	.	.	4b-X/)	.	.	.	(8ddn\L	-he-	-bie	[ >	.
.	.	8FF#/	.	.	.	.	.	8cc#\J)	.	.	]]	.
*	*	*	*	*	*	*	*	*	*	*	*v	*v
*	*v	*v	*	*	*	*	*	*	*	*	*
=23	=23	=23	=23	=23	=23	=23	=23	=23	=23	=23
!	!	!	!	!	!	!	!	!	!	!LO:HP:a
8F#/L 8An	4ryy	.	((4an/	[>2dn\	.	.	(4ddn\	-los	za-	<
[>8FF#/J	.	1	.	.	.	.	.	.	.	.
8FF#/]	[2FFF#\	.	2An/)	.	.	.	4an/)	.	.	.
4FF#/	.	.	.	.	.	.	.	.	.	.
!	!	!	!	!LO:ACC:color=grey	!	!	!	!	!	!
.	.	.	.	4c#X\ 4dnX]	.	.	4a#X/	bist	-męt	.
[8FF#/	.	.	.	.	.	.	.	.	.	.
*v	*v	*	*	*	*	*	*	*	*	*
*	*	*v	*v	*	*	*	*	*	*
=24	=24	=24	=24	=24	=24	=24	=24	=24
8FFF#/] 8FF#]	.	(4An/ 4cn 4d#X	.	.	2.bn\	du,	burz,	[[
(4FFF#/ 4FF#	.	.	.	.	.	.	.	.
.	.	4A#X/ 4c#X 4en	.	.	.	.	.	.
4GGGn/ 4GGn	.	.	.	.	.	.	.	.
.	.	4An/) 4cn 4f#	.	.	.	.	.	.
!LO:ACC:n=2:color=grey	!	!	!	!	!	!	!	!
[8DDD#/) [8DD#X	.	.	.	.	.	.	.	.
=25	=25	=25	=25	=25	=25	=25	=25	=25
*	*	*^	*	*	*	*	*	*
8DDD#/L] 8DD#]	.	4ryy	4A#X/ 4c#X [4gn	.	.	4r	.	.	.
(8EEEn/ 8EEn	.	.	.	.	.	.	.	.	.
!	!	!	!	!	!	!	!	!	!LO:DY:a
8AA#X/	.	4c#/ 4cc#	8g\]	.	.	4cc#\	steu-	Duch	<
!	!	!LO:TX:b:i:t=rit.	!	!	!	!	!	!	!
8A#X/J)	.	.	4f#\	.	.	.	.	.	.
!LO:ACC:n=2:color=grey	!	!	!	!	!	!	!	!	!
4GGG#/ 4GG#X	.	4dn/) 4ddn	.	.	.	4ddn\	-erst	twój	.
.	.	.	8fn\	.	.	.	.	.	.
!!LO:LB:g=original	!	!	!	!	!	!	!	!	!
=26	=26	=26	=26	=26	=26	=26	=26	=26	=26
*	*	*	*	*	*	*	*	*	*^
!	!	!	!	!	!	!	!	!	!LO:HP:a	!
!	!	!	!	!	!	!LO:TX:a:B:t=Tempo I.	!	!	!LO:DY:a	!LO:HP:t=molto dim.
8GGGn\L 8GGn	.	(8gn/L	[4e-X\ 4g	.	f >	2dd#X\	aus	z ci-	f >	>
(8cn\	.	[8ccn/J	.	.	.	.	.	.	.	.
*	*	*	*	*below	*	*	*	*	*	*
!	!	!LO:TX:t=P:problem: 4ee-X zakreślone ołówkiem	!	!	!	!	!	!	!	!
8F#X\	5	4e-/] 4cc_ 4ee-X	8f#X\L	2	.	.	.	.	.	.
8Gn\	4	.	[>8g\J	2	.	.	.	.	.	.
8c#X\	2	4en/ 4een	8g\L] 8cc]	.	.	4een\	dem	-chej	]]	.
!LO:TX:t=P:problem: voice leading line	!	!	!	!	!	!	!	!	!	!
8dn\J)	1	.	8b\J	.	]]	.	.	.	.	.
*	*	*	*	*	*	*	*	*	*v	*v
=27	=27	=27	=27	=27	=27	=27	=27	=27	=27
!	!	!LO:TX:t=P:problem: ppp zakreślone ołówkiem	!	!	!	!	!	!	!LO:DY:a
8e-X>\L	2	2gn/ 2b-X 2ggn	4ryy	.	ppp	2ggn\	stil-	tej	ppp
(8FFFn/	.	.	.	.	.	.	.	.	.
8FFn/	.	.	4en\	.	.	.	.	.	.
!LO:SIC:o=8C#X/:t=# w nawiasie	!	!	!	!	!	!	!	!	!
8C#X/	.	.	.	.	.	.	.	.	.
8Dn/	.	4an/) 4ffn	[4fn\	.	.	4ffn\	-len	przy-	.
8An/J)	.	.	.	.	.	.	.	.	.
*	*	*v	*v	*	*	*	*	*	*
=28	=28	=28	=28	=28	=28	=28	=28	=28
*^	*	*	*	*	*	*	*	*
!	!	!	!LO:TX:t=P:problem:mixed beam	!	!	!	!	!	!LO:HP:a
(4.G#X/	8G#/L	.	(>4f/] 4ccn	.	>	2.ddn\	Ha-	-sta-	>]
.	8EEEn/	.	.	.	.	.	.	.	.
.	8EEn/J	.	4en/ 4cc#X	.	.	.	.	.	.
8Gn/L	4.ryy	.	.	.	.	.	.	.	.
8F#X/	.	.	4e-X/) 4ddn	.	.	.	.	.	.
8Cn/J)	.	.	.	.	.	.	.	.	.
=29	=29	=29	=29	=29	=29	=29	=29	=29	=29
*	*	*	*	*	*	*^	*	*	*
!	!LO:TX:t=P:problem:mixed beam	!	!	!	!	!	!	!	!	!
(4.Fn/	8F\L	.	(>4dn/ 4an	.	.	4.an/	4.ryy	-fen	-ni	.
.	8DDDn/	.	.	.	.	.	.	.	.	.
.	8DDn/J	.	4c#X/ 4a#X	.	.	.	.	.	.	.
8En/L	4.ryy	.	.	.	.	4r	8r	.	.	.
!	!	!	!LO:TX:b:i:t=rit.	!	!	!	!	!	!	!
8D#X/	.	.	4B#X/) 4bn	.	.	.	4b\	.	do	.
8FF#X/J)	.	.	.	.	]]	8r	.	.	.	.
*v	*v	*	*	*	*	*	*	*	*	*
=30	=30	=30	=30	=30	=30	=30	=30	=30	=30
*	*	*^	*	*	*	*	*	*	*
*	*	*	*	*	*^	*	*	*	*	*
!	!	!	!	!	!LO:DY:a	!	!	!	!	!	!
!	!	!	!	!	!LO:HP:a	!	!	!	!	!	!
(8CCC#X/L 8CC#X	.	(8a#X/L	4c#X\ 4f#X	.	p <	<[	4r	(2ff#\	.	gwiazd	.
*	*	*	*	*above	*	*	*	*	*	*	*
8F#X/J	2	[<8an/J	.	1	.	f	.	.	.	.	.
!	!	!	!	!	!	!	!	!	!	!	!LO:DY:a
!	!	!	!	!	!	!	!	!	!	!	!LO:HP:a
8BB#X\L 8B#X	.	4a/] 4aan	8ff#X\	.	.	.	4ff#X/	.	dei-	.	f <
8C#X\ 8c#X	.	.	4ee#X\	.	.	.	.	.	.	.	.
8F##X\ 8f##X	.	4a#X/ 4aa#X	.	.	.	.	4ee#X/	4ee#\)	-nen	.	.
8G#X\J) 8g#X	.	.	8een\	.	.	.	.	.	.	.	.
*	*	*	*	*	*v	*v	*	*	*	*	*
*	*	*v	*v	*	*	*	*	*	*	*
*	*	*	*	*	*v	*v	*	*	*
!!LO:LB:g=original	!	!	!	!	!	!	!	!
=31	=31	=31	=31	=31	=31	=31	=31	=31
*^	*	*	*	*	*	*	*	*
*	*	*	*	*	*^	*	*	*	*
!LO:TX:t=P:problem: voice leading lines	!	!	!	!	!LO:HP:a	!	!	!	!	!
4c#/ 4en 4an	8An\L	.	2cc#/ 2een 2ccc#	.	[ >	.	2een\	Ster-	rwie	.
.	(<8BBB/J	.	.	.	.	.	.	.	.	.
4A#X>\ 4a#X>	8BB/L	.	.	.	.	>	.	.	.	.
.	8F##X/J	.	.	.	.	.	.	.	.	[
!	!	!	!	!	!	!	!	!	!	!LO:HP:a
8d#/L	4G#\ 4B	.	4b/) 4dd# 4bb	.	]	]	4dd#X\	-nen	się	>
!LO:TX:t=P:problem: voice leading line	!	!	!	!	!	!	!	!	!	!
8d##X/J)	.	.	.	.	.	.	.	.	.	.
*	*	*	*	*	*v	*v	*	*	*	*
*v	*v	*	*	*	*	*	*	*	*
=32	=32	=32	=32	=32	=32	=32	=32	=32
!	!	!LO:N:n=2:acc=n#	!	!	!	!	!	!
8r	.	(>4B/ 4dn 4e#	.	p <	2b\	zu,	zórz	]]
(4GGG#/ 4GG#	.	.	.	.	.	.	.	.
.	.	4B#X/ 4d#X 4f#	.	.	.	.	.	.
4AAAn/ 4AAn	.	.	.	.	.	.	.	.
.	.	4A#/ 4c# 4f##X	.	.	4r	.	.	.
[8DDD##X/) [8DD##X	.	.	.	.	.	.	.	.
=33	=33	=33	=33	=33	=33	=33	=33	=33
*	*	*^	*	*	*^	*	*	*
!LO:TX:b:t=e:color=grey	!	!	!	!	!	!	!	!	!	!
!LO:TX:t=P:problem: e dopisane ołówkiem	!	!	!	!	!	!	!	!	!	!
8DDD##/L] 8DD##]	.	4ryy	4Bn/ 4dn [4g#	.	.	4r	4ryy	.	.	.
(8EEE#/	.	.	.	.	.	.	.	.	.	.
!	!	!	!	!	!	!	!	!	!	!LO:HP:a
8EE#/	1	4dnX/ 4ddnX	8g#\]	.	[	(4ddn/	8r	dei-	.	<
8BB/J)	2	.	4gn\	.	mf	.	8ddnX\	.	do	.
!	!	!LO:TX:a:i:t=rit.	!	!	!	!	!	!	!	!
(8BBB#X/L 8BB#X	.	4d#X/) 4dd#X	.	.	>	(<8dd#X\L)	8dd#/	.	gwiazd	.
!LO:TX:t=P:problem: voice leading line	!	!	!	!	!	!	!	!	!	!LO:DY:a
8An/J)	.	.	8f#\	.	]]	8f#\J)	8f#/	-nen	.	[ mf
*	*	*	*	*	*	*v	*v	*	*	*
=34	=34	=34	=34	=34	=34	=34	=34	=34	=34
*^	*	*	*	*	*	*	*	*	*
!	!LO:TX:t=P:problem:mixed beam	!	!	!	!	!	!	!	!	!LO:HP:a
4.E#X\	8E#\L	.	(2dn/ 2g#X	(4A#X\	.	.	2g#/	Ster-	rwie	>
.	(<8CCC#/	.	.	.	.	.	.	.	.	.
!	!	!	! 	!	!	!	!	!	!	!
!	!	!	!LO:TX:a:t=ral-len-tan-do:dur=2h2q:ext=ud:problem:text with extention lines	!LO:TX:a:i:t=ral-len-tan-do	!	!	!	!	!	!
.	8CC#/J	.	.	2B\)	.	>	.	.	.	.
8F#/L	(8C#\	.	.	.	.	.	.	.	.	.
8F##X/	4c#\)	1	8c#/L 8f#	.	.	.	(8f#/L	-nen	się	.
8G#/J)	.	2	8e#/J	.	.	.	8e#/J)	.	.	]]
*v	*v	*	*	*	*	*	*	*	*	*
*	*	*v	*v	*	*	*	*	*	*
=35	=35	=35	=35	=35	=35	=35	=35	=35
!	!	!	!	!	!	!	!	!LO:DY:a
!	!	!	!	!	!	!	!	!LO:DY:a
8r	.	2A#</ 2c# 2f#	.	.	[2.f#/	zu.	zórz.	pp >
(<8FFF#/L	.	.	.	.	.	.	.	.
8FF#/	.	.	.	.	.	.	.	.
8C#/	.	.	.	.	.	.	.	.
8A#/	.	4r	.	] pp	.	.	.	.
8f#>\J)	.	.	.	.	.	.	.	.
=36	=36	=36	=36	=36	=36	=36	=36	=36
2.r	.	8ff#\)	.	.	8f#/]	.	.	.
.	.	8r	.	.	8r	.	.	]
.	.	4r	.	.	4r	.	.	.
.	.	4r	.	.	4r	.	.	.
==	==	==	==	==	==	==	==	==
*-	*-	*-	*-	*-	*-	*-	*-	*-
!!!system-decoration: s1{(s2,s3)}
!!!RDF**kern: > = above
!!!RDF**kern: < = below
!!!RDF**kern: N = linked
!!!ENC: Anastazja Marusiak
!!!END: 2023-09-28
!!!EED: Jan Barakat
!!!EEV: 2023-11-25
